dist/img/sprites/lava.svg

<svg width="154" height="28" viewBox="0 0 154 28" fill="none" xmlns="http://www.w3.org/2000/svg"><path d="M3 25V3h7.5v15H26v7H3zm36.5 1l-5-5.5L53 2.5l18.5 18-5 5.5L53 13 39.5 26zm80 0l-5-5.5 18.5-18 18.5 18-5 5.5L133 13l-13.5 13zm-13-23.5l5 5.5L93 26 74.5 8l5-5.5 13.5 13 13.5-13z" fill="#fff"/></svg>

<svg width="154" height="28" viewBox="0 0 154 28" fill="none" xmlns="http://www.w3.org/2000/svg">
<path d="M3 25V3H10.5V18H26V25H3Z" fill="white"/>
<path d="M39.5 26L34.5 20.5L53 2.5L71.5 20.5L66.5 26L53 13L39.5 26Z" fill="white"/>
<path d="M119.5 26L114.5 20.5L133 2.5L151.5 20.5L146.5 26L133 13L119.5 26Z" fill="white"/>
<path d="M106.5 2.5L111.5 8L93 26L74.5 8L79.5 2.5L93 15.5L106.5 2.5Z" fill="white"/>
</svg>
